dist/icons/svgs/arrow-right-to-line-outline.svg

<svg xmlns="http://www.w3.org/2000/svg" width="24" height="24" fill="currentcolor" class="icon-arrow-right-to-line-outline" viewBox="0 0 24 24">
  <path d="M20.75 5.4375V18.5625C20.75 19.1094 20.3203 19.5 19.8125 19.5C19.2656 19.5 18.875 19.1094 18.875 18.5625V5.4375C18.875 4.92969 19.2656 4.5 19.8125 4.5C20.3203 4.5 20.75 4.92969 20.75 5.4375ZM15.4375 12.7031L10.125 17.7031C9.73438 18.0547 9.14844 18.0156 8.79688 17.6641C8.44531 17.2734 8.44531 16.6875 8.83594 16.3359L12.4297 12.9375H9.1875H4.1875C3.64062 12.9375 3.25 12.5469 3.25 12C3.25 11.4922 3.64062 11.0625 4.1875 11.0625H9.1875H12.4297L8.83594 7.70312C8.44531 7.35156 8.44531 6.76562 8.79688 6.375C9.14844 5.98438 9.73438 5.98438 10.125 6.33594L15.4375 11.3359C15.6328 11.5312 15.75 11.7656 15.75 12C15.75 12.2734 15.6328 12.5078 15.4375 12.7031Z"/>
</svg>

<svg xmlns="http://www.w3.org/2000/svg" width="24" height="24" fill="currentColor" class="icon-arrow-right-to-line-outline" viewBox="0 0 24 24">
  <path d="M20.75 5.438v13.125c0 .546-.43.937-.937.937-.547 0-.938-.39-.938-.937V5.438c0-.508.39-.938.938-.938a.95.95 0 0 1 .937.938m-5.312 7.265-5.313 5a.97.97 0 0 1-1.328-.039c-.352-.39-.352-.977.039-1.328l3.594-3.398H4.188c-.547 0-.938-.391-.938-.938 0-.508.39-.937.938-.937h8.242l-3.594-3.36c-.39-.351-.39-.937-.04-1.328.352-.39.938-.39 1.329-.04l5.313 5c.195.196.312.43.312.665a.98.98 0 0 1-.312.703"/>
</svg>
